public/assets/ellipse2.svg

<svg viewBox="0 0 319 294" fill="none" xmlns="http://www.w3.org/2000/svg">
<g opacity="0.8">
<path opacity="0.5" d="M119.922 212.201C92.0836 197.719 71.3172 177.291 60.2341 155.994C49.1494 134.693 47.7716 112.577 58.5856 94.6379C69.3996 76.6994 90.419 66.2338 115.762 63.8829C141.1 61.5324 170.701 67.3058 198.54 81.7876C226.379 96.2695 247.145 116.697 258.228 137.994C269.313 159.295 270.691 181.412 259.877 199.35C249.063 217.289 228.043 227.754 202.701 230.105C177.362 232.456 147.761 226.682 119.922 212.201Z" stroke="url(#paint0_linear)"/>
<path opacity="0.5" d="M131.142 193.886C110.638 183.219 95.2621 168.319 86.966 152.874C78.6674 137.425 77.4769 121.492 85.2027 108.676C92.9285 95.86 108.175 88.477 126.691 86.977C145.202 85.4773 166.912 89.8693 187.416 100.536C207.921 111.202 223.296 126.102 231.592 141.547C239.891 156.996 241.081 172.93 233.356 185.745C225.63 198.561 210.383 205.944 191.867 207.444C173.357 208.944 151.646 204.552 131.142 193.886Z" stroke="url(#paint1_linear)"/>
<path opacity="0.5" d="M142.796 174.493C130.622 168.16 121.522 159.283 116.638 150.073C111.752 140.859 111.108 131.369 115.713 123.731C120.317 116.092 129.364 111.643 140.374 110.699C151.379 109.754 164.282 112.323 176.456 118.656C188.63 124.989 197.73 133.866 202.615 143.077C207.501 152.291 208.145 161.78 203.54 169.419C198.935 177.057 189.889 181.506 178.878 182.451C167.873 183.395 154.97 180.826 142.796 174.493Z" stroke="url(#paint2_linear)"/>
</g>
<defs>
<linearGradient id="paint0_linear" x1="260.32" y1="199.581" x2="65.5287" y2="82.154" gradientUnits="userSpaceOnUse">
<stop stop-color="#A8A5CE"/>
<stop offset="1" stop-color="#EE9450"/>
</linearGradient>
<linearGradient id="paint1_linear" x1="233.799" y1="185.976" x2="90.2044" y2="99.4123" gradientUnits="userSpaceOnUse">
<stop stop-color="#A8A5CE"/>
<stop offset="1" stop-color="#EE9450"/>
</linearGradient>
<linearGradient id="paint2_linear" x1="203.983" y1="169.649" x2="118.51" y2="118.123" gradientUnits="userSpaceOnUse">
<stop stop-color="#A8A5CE"/>
<stop offset="1" stop-color="#EE9450"/>
</linearGradient>
</defs>
</svg>

<svg viewBox="0 0 319 294" fill="none" xmlns="http://www.w3.org/2000/svg"><g opacity=".8"><path opacity=".5" d="M119.922 212.201c-27.838-14.482-48.605-34.91-59.688-56.207-11.085-21.301-12.462-43.417-1.648-61.356s31.833-28.404 57.176-30.755c25.338-2.35 54.939 3.423 82.778 17.905 27.839 14.481 48.605 34.909 59.688 56.206 11.085 21.301 12.463 43.418 1.649 61.356-10.814 17.939-31.834 28.404-57.176 30.755-25.339 2.351-54.94-3.423-82.779-17.904z" stroke="url(#paint0_linear)"/><path opacity=".5" d="M131.142 193.886c-20.504-10.667-35.88-25.567-44.176-41.012-8.299-15.449-9.49-31.382-1.763-44.198 7.725-12.816 22.972-20.199 41.488-21.699 18.511-1.5 40.221 2.892 60.725 13.559 20.505 10.666 35.88 25.566 44.176 41.011 8.299 15.449 9.489 31.383 1.764 44.198-7.726 12.816-22.973 20.199-41.489 21.699-18.51 1.5-40.221-2.892-60.725-13.558z" stroke="url(#paint1_linear)"/><path opacity=".5" d="M142.796 174.493c-12.174-6.333-21.274-15.21-26.158-24.42-4.886-9.214-5.53-18.704-.925-26.342 4.604-7.639 13.651-12.088 24.661-13.032 11.005-.945 23.908 1.624 36.082 7.957s21.274 15.21 26.159 24.421c4.886 9.214 5.53 18.703.925 26.342-4.605 7.638-13.651 12.087-24.662 13.032-11.005.944-23.908-1.625-36.082-7.958z" stroke="url(#paint2_linear)"/></g><defs><linearGradient id="paint0_linear" x1="260.32" y1="199.581" x2="65.529" y2="82.154" gradientUnits="userSpaceOnUse"><stop stop-color="#A8A5CE"/><stop offset="1" stop-color="#EE9450"/></linearGradient><linearGradient id="paint1_linear" x1="233.799" y1="185.976" x2="90.204" y2="99.412" gradientUnits="userSpaceOnUse"><stop stop-color="#A8A5CE"/><stop offset="1" stop-color="#EE9450"/></linearGradient><linearGradient id="paint2_linear" x1="203.983" y1="169.649" x2="118.51" y2="118.123" gradientUnits="userSpaceOnUse"><stop stop-color="#A8A5CE"/><stop offset="1" stop-color="#EE9450"/></linearGradient></defs></svg>
